; generated by Slic3r 0.9.10b on 2014-01-04 at 22:05:06

; layer_height = 0.3
; perimeters = 3
; top_solid_layers = 3
; bottom_solid_layers = 3
; fill_density = 1
; perimeter_speed = 30
; infill_speed = 60
; travel_speed = 130
; nozzle_diameter = 0.5
; filament_diameter = 3
; extrusion_multiplier = 1
; perimeters extrusion width = 0.70mm
; infill extrusion width = 0.70mm
; solid infill extrusion width = 0.70mm
; top infill extrusion width = 0.70mm
; first layer extrusion width = 0.60mm

G21 ; set units to millimeters
M107
M190 S110 ; wait for bed temperature to be reached
M104 S225 ; set temperature
G28 ; home all axes
G1 Z5 F5000 ; lift nozzle
M109 S225 ; wait for temperature to be reached
G90 ; use absolute coordinates
G92 E0
M82 ; use absolute distances for extrusion
G1 F1800.000 E-1.00000
G1 Z0.400 F7800.000
G92 E0
G1 X100.170 Y56.913
G1 Z0.300
G1 F1800.000 E2.00000
G1 X100.590 Y56.323 F540.000 E2.01778
G1 X102.590 Y53.823 E2.09639
G1 X103.170 Y53.193 E2.11742
G1 X103.820 Y52.643 E2.13833
G1 X106.390 Y50.743 E2.21680
G1 X107.120 Y50.273 E2.23812
G1 X107.900 Y49.913 E2.25922
G1 X110.880 Y48.743 E2.33782
G1 X111.700 Y48.473 E2.35902
G1 X112.550 Y48.323 E2.38021
G1 X115.670 Y47.973 E2.45730
G1 X116.410 Y47.923 E2.47551
G1 X117.450 Y48.003 E2.50113
G1 X120.610 Y48.483 E2.57961
G1 X121.450 Y48.663 E2.60070
G1 X122.250 Y48.953 E2.62159
G1 X125.180 Y50.233 E2.70010
G1 X125.940 Y50.623 E2.72108
G1 X126.650 Y51.113 E2.74226
G1 X129.150 Y53.103 E2.82072
G1 X129.790 Y53.693 E2.84209
G1 X130.350 Y54.353 E2.86334
G1 X132.250 Y56.933 E2.94202
G1 X132.710 Y57.653 E2.96300
G1 X133.070 Y58.423 E2.98387
G1 X134.240 Y61.393 E3.06225
G1 X134.510 Y62.223 E3.08368
G1 X134.660 Y63.083 E3.10511
G1 X135.010 Y66.263 E3.18367
G1 X135.050 Y67.113 E3.20456
G1 X134.980 Y67.953 E3.22526
G1 X134.510 Y71.113 E3.30370
G1 X134.320 Y71.963 E3.32509
G1 X134.030 Y72.783 E3.34644
G1 X132.750 Y75.703 E3.42473
G1 X100.290 Y142.253 E5.24281
G1 X99.970 Y142.843 E5.25929
G1 X99.590 Y143.393 E5.27571
G1 X97.640 Y145.923 E5.35414
G1 X97.080 Y146.563 E5.37502
G1 X96.440 Y147.123 E5.39590
G1 X93.900 Y149.073 E5.47453
G1 X93.180 Y149.553 E5.49577
G1 X92.400 Y149.933 E5.51708
G1 X89.450 Y151.153 E5.59546
G1 X88.640 Y151.423 E5.61643
G1 X87.800 Y151.593 E5.63747
G1 X84.630 Y152.013 E5.71599
G1 X83.770 Y152.073 E5.73715
G1 X82.910 Y152.013 E5.75832
G1 X79.740 Y151.593 E5.83684
G1 X78.900 Y151.433 E5.85784
G1 X78.090 Y151.153 E5.87888
G1 X75.130 Y149.933 E5.95749
G1 X74.350 Y149.553 E5.97879
G1 X73.620 Y149.063 E6.00038
G1 X71.090 Y147.113 E6.07881
G1 X70.460 Y146.553 E6.09951
G1 X69.900 Y145.923 E6.12021
G1 X67.950 Y143.393 E6.19864
G1 X67.460 Y142.663 E6.22023
G1 X67.080 Y141.883 E6.24153
G1 X65.860 Y138.923 E6.32014
G1 X65.580 Y138.113 E6.34119
G1 X65.420 Y137.273 E6.36218
G1 X65.000 Y134.103 E6.44070
G1 X64.940 Y133.243 E6.46187
G1 X65.000 Y132.383 E6.48303
G1 X65.420 Y129.213 E6.56155
G1 X65.590 Y128.373 E6.58259
G1 X65.860 Y127.563 E6.60356
G1 X67.250 Y124.233 E6.69216
G1 X99.820 Y57.543 E8.51452
G1 X100.128 Y56.989 E8.53008
G1 F1800.000 E7.53008
G1 Z0.400 F7800.000
G92 E0
G1 X107.429 Y61.443
G1 Z0.300
G1 F1800.000 E2.00000
G1 X107.588 Y61.183 F540.000 E2.00749
G1 X107.928 Y60.860 E2.01900
G1 X108.338 Y60.638 E2.03047
G1 X108.792 Y60.528 E2.04193
G1 X109.260 Y60.540 E2.05342
G1 X109.710 Y60.671 E2.06492
G1 X110.109 Y60.918 E2.07645
G1 X110.429 Y61.257 E2.08789
G1 X110.653 Y61.667 E2.09937
G1 X110.763 Y62.121 E2.11085
G1 X110.751 Y62.590 E2.12236
G1 X110.617 Y63.037 E2.13381
G1 X110.341 Y63.467 E2.14636
G1 X110.035 Y63.758 E2.15674
G1 X109.624 Y63.982 E2.16823
G1 X109.170 Y64.092 E2.17970
G1 X108.701 Y64.080 E2.19122
G1 X108.252 Y63.946 E2.20272
G1 X107.854 Y63.703 E2.21419
G1 X107.531 Y63.363 E2.22569
G1 X107.309 Y62.952 E2.23716
G1 X107.199 Y62.497 E2.24867
G1 X107.211 Y62.030 E2.26013
G1 X107.344 Y61.581 E2.27163
G1 X107.384 Y61.517 E2.27348
G1 X107.734 Y61.451 F7800.000
G1 F1800.000 E1.27348
G1 Z0.400 F7800.000
G92 E0
G1 X122.062 Y70.097
G1 Z0.300
G1 F1800.000 E2.00000
G1 X122.426 Y69.736 F540.000 E2.01259
G1 X122.837 Y69.514 E2.02406
G1 X123.290 Y69.404 E2.03551
G1 X123.758 Y69.416 E2.04701
G1 X124.208 Y69.547 E2.05851
G1 X124.607 Y69.793 E2.07002
G1 X124.929 Y70.133 E2.08152
G1 X125.151 Y70.543 E2.09298
G1 X125.261 Y70.997 E2.10445
G1 X125.249 Y71.466 E2.11596
G1 X125.115 Y71.915 E2.12745
G1 X124.872 Y72.314 E2.13894
G1 X124.532 Y72.634 E2.15039
G1 X124.122 Y72.858 E2.16187
G1 X123.668 Y72.968 E2.17335
G1 X123.199 Y72.956 E2.18486
G1 X122.750 Y72.822 E2.19636
G1 X122.351 Y72.579 E2.20784
G1 X122.031 Y72.239 E2.21930
G1 X121.807 Y71.829 E2.23078
G1 X121.697 Y71.375 E2.24226
G1 X121.709 Y70.906 E2.25377
G1 X121.842 Y70.457 E2.26526
G1 X122.017 Y70.171 E2.27349
G1 X122.566 Y70.191 F7800.000
G1 F1800.000 E1.27349
G1 Z0.400 F7800.000
G92 E0
G1 X121.078 Y61.204
G1 Z0.300
G1 F1800.000 E2.00000
G1 X120.613 Y61.266 F540.000 E2.01153
G1 X120.150 Y61.204 E2.02300
G1 X119.713 Y61.025 E2.03458
G1 X119.347 Y60.740 E2.04599
G1 X119.062 Y60.370 E2.05745
G1 X118.883 Y59.938 E2.06893
G1 X118.821 Y59.474 E2.08042
G1 X118.883 Y59.010 E2.09192
G1 X119.062 Y58.578 E2.10339
G1 X119.346 Y58.208 E2.11485
G1 X119.717 Y57.921 E2.12636
G1 X120.150 Y57.744 E2.13784
G1 X120.613 Y57.682 E2.14932
G1 X121.078 Y57.744 E2.16084
G1 X121.507 Y57.920 E2.17222
G1 X121.881 Y58.208 E2.18381
G1 X122.166 Y58.578 E2.19527
G1 X122.345 Y59.011 E2.20677
G1 X122.405 Y59.474 E2.21824
G1 X122.345 Y59.937 E2.22971
G1 X122.166 Y60.370 E2.24122
G1 X121.882 Y60.740 E2.25266
G1 X121.509 Y61.027 E2.26422
G1 X121.159 Y61.171 E2.27351
G1 X120.761 Y60.858 F7800.000
G1 F1800.000 E1.27351
G1 Z0.400 F7800.000
G92 E0
G1 X118.676 Y62.908
G1 Z0.300
G1 F1800.000 E2.00000
G1 X119.466 Y63.513 F540.000 E2.02442
G1 X120.193 Y64.461 E2.05376
G1 X120.649 Y65.564 E2.08307
G1 X120.804 Y66.748 E2.11239
G1 X120.649 Y67.932 E2.14171
G1 X120.193 Y69.035 E2.17102
G1 X119.466 Y69.983 E2.20037
G1 X118.516 Y70.710 E2.22972
G1 X117.414 Y71.167 E2.25903
G1 X116.229 Y71.323 E2.28837
G1 X115.047 Y71.167 E2.31765
G1 X113.941 Y70.710 E2.34702
G1 X112.994 Y69.983 E2.37634
G1 X112.267 Y69.035 E2.40568
G1 X111.812 Y67.933 E2.43496
G1 X111.653 Y66.748 E2.46431
G1 X111.812 Y65.563 E2.49366
G1 X112.269 Y64.456 E2.52307
G1 X112.994 Y63.513 E2.55227
G1 X113.941 Y62.786 E2.58161
G1 X115.047 Y62.329 E2.61097
G1 X116.229 Y62.173 E2.64026
G1 X117.414 Y62.329 E2.66960
G1 X118.512 Y62.784 E2.69880
G1 X118.607 Y62.855 E2.70171
G1 X118.223 Y63.291 F7800.000
G1 X119.053 Y63.926 F540.000 E2.72737
G1 X119.688 Y64.752 E2.75296
G1 X120.085 Y65.715 E2.77852
G1 X120.221 Y66.748 E2.80411
G1 X120.085 Y67.781 E2.82970
G1 X119.688 Y68.744 E2.85526
G1 X119.053 Y69.570 E2.88086
G1 X118.225 Y70.205 E2.90647
G1 X117.263 Y70.604 E2.93205
G1 X116.229 Y70.740 E2.95765
G1 X115.198 Y70.604 E2.98319
G1 X114.233 Y70.205 E3.00882
G1 X113.407 Y69.570 E3.03440
G1 X112.772 Y68.744 E3.05999
G1 X112.375 Y67.782 E3.08554
G1 X112.237 Y66.748 E3.11115
G1 X112.375 Y65.714 E3.13675
G1 X112.773 Y64.751 E3.16235
G1 X113.407 Y63.926 E3.18789
G1 X114.233 Y63.291 E3.21348
G1 X115.198 Y62.892 E3.23910
G1 X116.229 Y62.756 E3.26465
G1 X117.263 Y62.892 E3.29025
G1 X118.143 Y63.257 E3.31366
G1 X118.199 Y63.869 F7800.000
G1 F1800.000 E2.31366
G1 Z0.400 F7800.000
G92 E0
G1 X112.978 Y71.940
G1 Z0.300
G1 F1800.000 E2.00000
G1 X113.471 Y72.316 F540.000 E2.01523
G1 X113.849 Y72.808 E2.03047
G1 X114.087 Y73.382 E2.04571
G1 X114.166 Y73.996 E2.06090
G1 X114.087 Y74.612 E2.07616
G1 X113.849 Y75.183 E2.09136
G1 X113.472 Y75.677 E2.10661
G1 X112.978 Y76.054 E2.12187
G1 X112.407 Y76.292 E2.13707
G1 X111.790 Y76.371 E2.15232
G1 X111.178 Y76.292 E2.16750
G1 X110.603 Y76.054 E2.18276
G1 X110.111 Y75.676 E2.19800
G1 X109.735 Y75.183 E2.21321
G1 X109.498 Y74.614 E2.22835
G1 X109.415 Y73.996 E2.24368
G1 X109.498 Y73.380 E2.25892
G1 X109.736 Y72.807 E2.27417
G1 X110.111 Y72.318 E2.28929
G1 X110.603 Y71.940 E2.30454
G1 X111.175 Y71.703 E2.31974
G1 X111.791 Y71.620 E2.33499
G1 X112.409 Y71.703 E2.35031
G1 X112.898 Y71.907 E2.36331
G1 X112.687 Y72.445 F7800.000
G1 X113.059 Y72.729 F540.000 E2.37481
G1 X113.344 Y73.100 E2.38628
G1 X113.523 Y73.533 E2.39778
G1 X113.583 Y73.996 E2.40925
G1 X113.523 Y74.461 E2.42077
G1 X113.344 Y74.892 E2.43222
G1 X113.059 Y75.264 E2.44373
G1 X112.687 Y75.549 E2.45524
G1 X112.256 Y75.728 E2.46669
G1 X111.791 Y75.788 E2.47821
G1 X111.328 Y75.728 E2.48967
G1 X110.895 Y75.549 E2.50117
G1 X110.524 Y75.264 E2.51265
G1 X110.240 Y74.892 E2.52415
G1 X110.061 Y74.462 E2.53558
G1 X109.999 Y73.996 E2.54713
G1 X110.061 Y73.532 E2.55861
G1 X110.241 Y73.100 E2.57011
G1 X110.524 Y72.730 E2.58155
G1 X110.895 Y72.445 E2.59303
G1 X111.327 Y72.266 E2.60451
G1 X111.791 Y72.204 E2.61600
G1 X112.257 Y72.266 E2.62755
G1 X112.607 Y72.412 E2.63685
G1 X112.667 Y72.913 F7800.000
G1 F1800.000 E1.63685
G1 Z0.400 F7800.000
G92 E0
G1 X91.598 Y135.770
G1 Z0.300
G1 F1800.000 E2.00000
G1 X92.030 Y135.947 F540.000 E2.01146
G1 X92.402 Y136.234 E2.02299
G1 X92.686 Y136.604 E2.03444
G1 X92.865 Y137.036 E2.04592
G1 X92.927 Y137.500 E2.05741
G1 X92.865 Y137.964 E2.06890
G1 X92.686 Y138.396 E2.08039
G1 X92.402 Y138.766 E2.09183
G1 X92.031 Y139.053 E2.10335
G1 X91.598 Y139.230 E2.11483
G1 X91.135 Y139.292 E2.12631
G1 X90.672 Y139.230 E2.13777
G1 X90.239 Y139.053 E2.14925
G1 X89.869 Y138.766 E2.16077
G1 X89.583 Y138.396 E2.17224
G1 X89.403 Y137.963 E2.18375
G1 X89.343 Y137.500 E2.19522
G1 X89.403 Y137.037 E2.20668
G1 X89.583 Y136.603 E2.21820
G1 X89.869 Y136.234 E2.22968
G1 X90.239 Y135.947 E2.24118
G1 X90.672 Y135.770 E2.25266
G1 X91.135 Y135.708 E2.26414
G1 X91.512 Y135.759 E2.27348
G1 X91.700 Y136.226 F7800.000
G1 F1800.000 E1.27348
G1 Z0.400 F7800.000
G92 E0
G1 X78.069 Y129.685
G1 Z0.300
G1 F1800.000 E2.00000
G1 X77.834 Y130.092 F540.000 E2.01152
G1 X77.502 Y130.421 E2.02301
G1 X77.099 Y130.655 E2.03446
G1 X76.647 Y130.777 E2.04595
G1 X76.178 Y130.777 E2.05746
G1 X75.727 Y130.655 E2.06893
G1 X75.321 Y130.422 E2.08044
G1 X74.992 Y130.092 E2.09189
G1 X74.758 Y129.686 E2.10340
G1 X74.636 Y129.234 E2.11488
G1 X74.636 Y128.766 E2.12639
G1 X74.758 Y128.314 E2.13787
G1 X74.991 Y127.908 E2.14937
G1 X75.321 Y127.579 E2.16082
G1 X75.727 Y127.345 E2.17233
G1 X76.179 Y127.223 E2.18381
G1 X76.647 Y127.223 E2.19531
G1 X77.099 Y127.345 E2.20681
G1 X77.502 Y127.578 E2.21825
G1 X77.834 Y127.908 E2.22973
G1 X78.069 Y128.315 E2.24126
G1 X78.188 Y128.766 E2.25273
G1 X78.188 Y129.234 E2.26421
G1 X78.091 Y129.601 E2.27355
G1 X77.601 Y129.727 F7800.000
G1 F1800.000 E1.27355
G1 Z0.400 F7800.000
G92 E0
G1 X85.167 Y126.658
G1 Z0.300
G1 F1800.000 E2.00000
G1 X85.064 Y125.888 F540.000 E2.01907
G1 X85.166 Y125.123 E2.03804
G1 X85.463 Y124.407 E2.05707
G1 X85.932 Y123.796 E2.07598
G1 X86.543 Y123.327 E2.09489
G1 X87.256 Y123.032 E2.11383
G1 X88.023 Y122.929 E2.13285
G1 X88.791 Y123.032 E2.15186
G1 X89.499 Y123.325 E2.17070
G1 X90.115 Y123.795 E2.18971
G1 X90.586 Y124.408 E2.20869
G1 X90.883 Y125.124 E2.22772
G1 X90.981 Y125.887 E2.24661
G1 X90.883 Y126.655 E2.26564
G1 X90.585 Y127.369 E2.28462
G1 X90.120 Y127.980 E2.30347
G1 X89.500 Y128.452 E2.32260
G1 X88.786 Y128.748 E2.34158
G1 X88.023 Y128.846 E2.36049
G1 X87.259 Y128.748 E2.37940
G1 X86.542 Y128.450 E2.39844
G1 X85.930 Y127.980 E2.41741
G1 X85.462 Y127.367 E2.43635
G1 X85.200 Y126.738 E2.45307
G1 X85.730 Y126.506 F7800.000
G1 X85.647 Y125.888 F540.000 E2.46838
G1 X85.730 Y125.274 E2.48360
G1 X85.968 Y124.699 E2.49887
G1 X86.345 Y124.209 E2.51406
G1 X86.835 Y123.832 E2.52924
G1 X87.407 Y123.595 E2.54445
G1 X88.023 Y123.512 E2.55971
G1 X88.639 Y123.595 E2.57496
G1 X89.209 Y123.831 E2.59011
G1 X89.703 Y124.208 E2.60537
G1 X90.081 Y124.700 E2.62060
G1 X90.319 Y125.274 E2.63586
G1 X90.398 Y125.887 E2.65104
G1 X90.319 Y126.504 E2.66632
G1 X90.080 Y127.077 E2.68154
G1 X89.706 Y127.568 E2.69670
G1 X89.209 Y127.947 E2.71204
G1 X88.636 Y128.184 E2.72727
G1 X88.023 Y128.263 E2.74246
G1 X87.409 Y128.184 E2.75765
G1 X86.835 Y127.946 E2.77290
G1 X86.343 Y127.568 E2.78814
G1 X85.967 Y127.075 E2.80336
G1 X85.763 Y126.586 E2.81637
G1 X86.293 Y126.354 F7800.000
G1 X86.231 Y125.888 F540.000 E2.82791
G1 X86.293 Y125.425 E2.83940
G1 X86.473 Y124.992 E2.85090
G1 X86.757 Y124.622 E2.86236
G1 X87.127 Y124.337 E2.87382
G1 X87.559 Y124.158 E2.88530
G1 X88.023 Y124.096 E2.89680
G1 X88.487 Y124.158 E2.90829
G1 X88.918 Y124.337 E2.91975
G1 X89.291 Y124.621 E2.93126
G1 X89.576 Y124.992 E2.94274
G1 X89.755 Y125.425 E2.95424
G1 X89.815 Y125.888 E2.96570
G1 X89.755 Y126.354 E2.97723
G1 X89.575 Y126.784 E2.98869
G1 X89.292 Y127.156 E3.00017
G1 X88.918 Y127.441 E3.01170
G1 X88.486 Y127.620 E3.02319
G1 X88.023 Y127.680 E3.03466
G1 X87.560 Y127.620 E3.04613
G1 X87.127 Y127.441 E3.05763
G1 X86.756 Y127.156 E3.06910
G1 X86.472 Y126.784 E3.08060
G1 X86.327 Y126.434 E3.08990
G1 X86.639 Y126.036 F7800.000
G1 F1800.000 E2.08990
G1 Z0.400 F7800.000
G92 E0
G1 X85.302 Y128.347
G1 Z0.300
G1 F1800.000 E2.00000
G1 X86.353 Y128.783 F540.000 E2.02793
G1 X87.421 Y129.602 E2.06098
G1 X88.240 Y130.670 E2.09403
G1 X88.756 Y131.914 E2.12710
G1 X88.932 Y133.250 E2.16018
G1 X88.756 Y134.586 E2.19327
G1 X88.240 Y135.830 E2.22633
G1 X87.421 Y136.897 E2.25938
G1 X86.353 Y137.717 E2.29243
G1 X85.109 Y138.233 E2.32550
G1 X83.773 Y138.409 E2.35859
G1 X82.439 Y138.233 E2.39161
G1 X81.194 Y137.717 E2.42472
G1 X80.125 Y136.898 E2.45778
G1 X79.306 Y135.830 E2.49083
G1 X78.790 Y134.586 E2.52390
G1 X78.614 Y133.250 E2.55698
G1 X78.790 Y131.914 E2.59006
G1 X79.306 Y130.670 E2.62313
G1 X80.125 Y129.603 E2.65618
G1 X81.193 Y128.783 E2.68924
G1 X82.440 Y128.267 E2.72236
G1 X83.773 Y128.091 E2.75538
G1 X85.109 Y128.267 E2.78847
G1 X85.222 Y128.314 E2.79147
G1 X84.958 Y128.831 F7800.000
G1 X86.061 Y129.288 F540.000 E2.82079
G1 X86.166 Y129.369 E2.82404
G1 X87.008 Y130.015 E2.85010
G1 X87.735 Y130.962 E2.87942
G1 X88.192 Y132.065 E2.90875
G1 X88.348 Y133.250 E2.93808
G1 X88.192 Y134.435 E2.96742
G1 X87.735 Y135.538 E2.99675
G1 X87.008 Y136.485 E3.02606
G1 X86.061 Y137.212 E3.05537
G1 X84.958 Y137.669 E3.08470
G1 X83.773 Y137.825 E3.11405
G1 X82.590 Y137.669 E3.14333
G1 X81.485 Y137.212 E3.17270
G1 X80.538 Y136.485 E3.20202
G1 X79.811 Y135.538 E3.23133
G1 X79.354 Y134.435 E3.26066
G1 X79.198 Y133.250 E3.29000
G1 X79.354 Y132.065 E3.31934
G1 X79.811 Y130.962 E3.34866
G1 X80.538 Y130.015 E3.37798
G1 X81.485 Y129.288 E3.40730
G1 X82.591 Y128.831 E3.43667
G1 X83.773 Y128.675 E3.46595
G1 X84.872 Y128.819 E3.49317
G1 X84.807 Y129.394 F7800.000
G1 X85.769 Y129.793 F540.000 E3.51875
G1 X85.813 Y129.828 E3.52013
G1 X86.595 Y130.428 E3.54433
G1 X87.230 Y131.254 E3.56990
G1 X87.629 Y132.216 E3.59549
G1 X87.765 Y133.250 E3.62108
G1 X87.629 Y134.284 E3.64668
G1 X87.230 Y135.246 E3.67226
G1 X86.595 Y136.072 E3.69784
G1 X85.769 Y136.707 E3.72342
G1 X84.807 Y137.106 E3.74901
G1 X83.773 Y137.242 E3.77460
G1 X82.741 Y137.106 E3.80015
G1 X81.777 Y136.707 E3.82578
G1 X80.951 Y136.072 E3.85136
G1 X80.316 Y135.246 E3.87693
G1 X79.917 Y134.284 E3.90252
G1 X79.781 Y133.250 E3.92811
G1 X79.917 Y132.216 E3.95371
G1 X80.316 Y131.254 E3.97929
G1 X80.951 Y130.428 E4.00487
G1 X81.777 Y129.793 E4.03045
G1 X82.742 Y129.394 E4.05608
G1 X83.773 Y129.258 E4.08163
G1 X84.721 Y129.383 E4.10509
G1 X84.932 Y129.959 F7800.000
G1 F1800.000 E3.10509
G1 Z0.400 F7800.000
G92 E0
G1 X80.418 Y139.059
G1 Z0.300
G1 F1800.000 E2.00000
G1 X80.791 Y139.344 F540.000 E2.01152
G1 X81.076 Y139.716 E2.02303
G1 X81.255 Y140.149 E2.03453
G1 X81.315 Y140.612 E2.04600
G1 X81.255 Y141.076 E2.05749
G1 X81.076 Y141.507 E2.06894
G1 X80.791 Y141.879 E2.08044
G1 X80.419 Y142.163 E2.09194
G1 X79.987 Y142.342 E2.10342
G1 X79.523 Y142.404 E2.11491
G1 X79.059 Y142.342 E2.12640
G1 X78.627 Y142.163 E2.13788
G1 X78.257 Y141.878 E2.14935
G1 X77.972 Y141.508 E2.16081
G1 X77.793 Y141.076 E2.17230
G1 X77.731 Y140.612 E2.18379
G1 X77.793 Y140.148 E2.19528
G1 X77.972 Y139.717 E2.20674
G1 X78.257 Y139.344 E2.21827
G1 X78.627 Y139.059 E2.22973
G1 X79.060 Y138.880 E2.24124
G1 X79.523 Y138.820 E2.25270
G1 X79.986 Y138.880 E2.26417
G1 X80.338 Y139.026 E2.27352
G1 X80.399 Y139.528 F7800.000
G1 X81.617 Y138.518
