; generated by Slic3r 0.9.10b on 2014-01-04 at 22:05:55

; layer_height = 0.3
; perimeters = 3
; top_solid_layers = 3
; bottom_solid_layers = 3
; fill_density = 1
; perimeter_speed = 30
; infill_speed = 60
; travel_speed = 130
; nozzle_diameter = 0.5
; filament_diameter = 3
; extrusion_multiplier = 1
; perimeters extrusion width = 0.70mm
; infill extrusion width = 0.70mm
; solid infill extrusion width = 0.70mm
; top infill extrusion width = 0.70mm
; first layer extrusion width = 0.60mm

G21 ; set units to millimeters
M107
M190 S110 ; wait for bed temperature to be reached
M104 S225 ; set temperature
G28 ; home all axes
G1 Z5 F5000 ; lift nozzle
M109 S225 ; wait for temperature to be reached
G90 ; use absolute coordinates
G92 E0
M82 ; use absolute distances for extrusion
G1 F1800.000 E-1.00000
G1 Z0.400 F7800.000
G92 E0
G1 X66.290 Y81.570
G1 Z0.300
G1 F1800.000 E2.00000
G1 X77.590 Y73.840 F540.000 E2.33617
G1 X78.570 Y73.290 E2.36376
G1 X79.030 Y73.080 E2.37618
G1 X80.100 Y72.690 E2.40414
G1 X81.150 Y72.470 E2.43048
G1 X81.990 Y72.420 E2.45114
G1 X118.000 Y72.420 E3.33533
G1 X118.840 Y72.470 E3.35600
G1 X119.890 Y72.690 E3.38234
G1 X120.960 Y73.080 E3.41030
G1 X121.420 Y73.290 E3.42272
G1 X122.400 Y73.840 E3.45031
G1 X133.710 Y81.570 E3.78668
G1 X134.690 Y82.390 E3.81806
G1 X135.490 Y83.380 E3.84931
G1 X136.090 Y84.510 E3.88072
G1 X136.450 Y85.730 E3.91196
G1 X136.580 Y87.000 E3.94330
G1 X136.580 Y106.000 E4.40983
G1 X136.480 Y108.090 E4.46121
G1 X136.280 Y109.840 E4.50446
G1 X136.050 Y111.200 E4.53832
G1 X135.660 Y112.920 E4.58163
G1 X135.170 Y114.620 E4.62507
G1 X134.430 Y116.660 E4.67835
G1 X133.880 Y117.930 E4.71234
G1 X133.690 Y118.340 E4.72343
G1 X132.880 Y119.880 E4.76616
G1 X132.180 Y121.070 E4.80006
G1 X130.950 Y122.890 E4.85399
G1 X130.110 Y123.980 E4.88778
G1 X128.970 Y125.300 E4.93061
G1 X127.940 Y126.260 E4.96518
G1 X126.730 Y126.980 E4.99975
G1 X125.400 Y127.430 E5.03423
G1 X124.000 Y127.580 E5.06880
G1 X76.000 Y127.580 E6.24739
G1 X74.600 Y127.430 E6.28196
G1 X73.270 Y126.980 E6.31644
G1 X72.060 Y126.260 E6.35101
G1 X71.030 Y125.300 E6.38558
G1 X69.890 Y123.980 E6.42841
G1 X69.050 Y122.890 E6.46220
G1 X68.040 Y121.410 E6.50619
G1 X67.820 Y121.070 E6.51614
G1 X66.940 Y119.560 E6.55905
G1 X66.310 Y118.340 E6.59276
G1 X65.570 Y116.660 E6.63784
G1 X64.830 Y114.620 E6.69112
G1 X64.340 Y112.920 E6.73456
G1 X63.950 Y111.200 E6.77787
G1 X63.720 Y109.840 E6.81174
G1 X63.520 Y108.090 E6.85499
G1 X63.420 Y106.000 E6.90636
G1 X63.420 Y87.000 E7.37289
G1 X63.550 Y85.730 E7.40423
G1 X63.910 Y84.510 E7.43547
G1 X64.510 Y83.380 E7.46688
G1 X65.310 Y82.390 E7.49814
G1 X66.223 Y81.626 E7.52738
G1 F1800.000 E6.52738
G1 Z0.400 F7800.000
G92 E0
G1 X109.143 Y99.236
G1 Z0.300
G1 F1800.000 E2.00000
G1 X109.436 Y98.520 F540.000 E2.01899
G1 X109.911 Y97.907 E2.03804
G1 X110.520 Y97.439 E2.05691
G1 X111.233 Y97.144 E2.07584
G1 X112.000 Y97.041 E2.09485
G1 X112.767 Y97.144 E2.11386
G1 X113.480 Y97.439 E2.13280
G1 X114.089 Y97.907 E2.15166
G1 X114.564 Y98.520 E2.17072
G1 X114.857 Y99.236 E2.18971
G1 X114.959 Y100.000 E2.20863
G1 X114.857 Y100.764 E2.22755
G1 X114.565 Y101.477 E2.24649
G1 X114.091 Y102.094 E2.26558
G1 X113.480 Y102.563 E2.28451
G1 X112.764 Y102.860 E2.30353
G1 X111.996 Y102.959 E2.32253
G1 X111.240 Y102.861 E2.34126
G1 X110.520 Y102.563 E2.36038
G1 X109.909 Y102.094 E2.37931
G1 X109.435 Y101.478 E2.39840
G1 X109.143 Y100.764 E2.41734
G1 X109.041 Y100.000 E2.43626
G1 X109.132 Y99.322 E2.45305
G1 X109.707 Y99.387 F7800.000
G1 X109.941 Y98.812 F540.000 E2.46828
G1 X110.322 Y98.320 E2.48357
G1 X110.812 Y97.944 E2.49873
G1 X111.384 Y97.707 E2.51393
G1 X112.000 Y97.624 E2.52918
G1 X112.616 Y97.707 E2.54443
G1 X113.188 Y97.944 E2.55964
G1 X113.677 Y98.320 E2.57480
G1 X114.059 Y98.812 E2.59008
G1 X114.293 Y99.386 E2.60532
G1 X114.376 Y100.000 E2.62052
G1 X114.293 Y100.613 E2.63571
G1 X114.059 Y101.186 E2.65092
G1 X113.679 Y101.681 E2.66624
G1 X113.188 Y102.058 E2.68143
G1 X112.614 Y102.296 E2.69670
G1 X111.998 Y102.375 E2.71194
G1 X111.389 Y102.297 E2.72702
G1 X110.812 Y102.058 E2.74234
G1 X110.321 Y101.681 E2.75753
G1 X109.941 Y101.187 E2.77286
G1 X109.707 Y100.613 E2.78806
G1 X109.624 Y100.000 E2.80326
G1 X109.695 Y99.473 E2.81632
G1 X110.270 Y99.537 F7800.000
G1 X110.447 Y99.104 F540.000 E2.82780
G1 X110.734 Y98.733 E2.83932
G1 X111.104 Y98.449 E2.85077
G1 X111.536 Y98.270 E2.86225
G1 X112.000 Y98.208 E2.87374
G1 X112.464 Y98.270 E2.88523
G1 X112.896 Y98.449 E2.89672
G1 X113.266 Y98.733 E2.90817
G1 X113.553 Y99.104 E2.91968
G1 X113.730 Y99.537 E2.93116
G1 X113.792 Y100.000 E2.94263
G1 X113.730 Y100.463 E2.95411
G1 X113.553 Y100.895 E2.96558
G1 X113.266 Y101.268 E2.97713
G1 X112.896 Y101.553 E2.98859
G1 X112.463 Y101.732 E3.00009
G1 X111.999 Y101.792 E3.01158
G1 X111.538 Y101.732 E3.02301
G1 X111.104 Y101.553 E3.03453
G1 X110.734 Y101.268 E3.04599
G1 X110.447 Y100.896 E3.05754
G1 X110.270 Y100.463 E3.06901
G1 X110.208 Y100.000 E3.08049
G1 X110.259 Y99.623 E3.08983
G1 X110.726 Y99.435 F7800.000
G1 F1800.000 E2.08983
G1 Z0.400 F7800.000
G92 E0
G1 X90.959 Y100.000
G1 Z0.300
G1 F1800.000 E2.00000
G1 X90.857 Y100.764 F540.000 E2.01892
G1 X90.565 Y101.478 E2.03785
G1 X90.091 Y102.094 E2.05695
G1 X89.480 Y102.563 E2.07587
G1 X88.761 Y102.861 E2.09498
G1 X88.004 Y102.959 E2.11372
G1 X87.236 Y102.860 E2.13272
G1 X86.520 Y102.563 E2.15175
G1 X85.909 Y102.094 E2.17067
G1 X85.435 Y101.478 E2.18977
G1 X85.143 Y100.764 E2.20870
G1 X85.041 Y100.000 E2.22762
G1 X85.143 Y99.236 E2.24654
G1 X85.436 Y98.520 E2.26553
G1 X85.911 Y97.907 E2.28459
G1 X86.520 Y97.439 E2.30346
G1 X87.233 Y97.144 E2.32239
G1 X88.000 Y97.041 E2.34141
G1 X88.767 Y97.144 E2.36041
G1 X89.480 Y97.439 E2.37934
G1 X90.089 Y97.907 E2.39821
G1 X90.564 Y98.520 E2.41726
G1 X90.857 Y99.236 E2.43625
G1 X90.948 Y99.914 E2.45305
G1 X90.376 Y100.000 F7800.000
G1 X90.293 Y100.613 F540.000 E2.46824
G1 X90.059 Y101.187 E2.48345
G1 X89.679 Y101.681 E2.49877
G1 X89.188 Y102.058 E2.51396
G1 X88.612 Y102.297 E2.52927
G1 X88.002 Y102.375 E2.54436
G1 X87.387 Y102.296 E2.55960
G1 X86.812 Y102.058 E2.57487
G1 X86.321 Y101.681 E2.59006
G1 X85.941 Y101.187 E2.60538
G1 X85.707 Y100.613 E2.62059
G1 X85.624 Y100.000 E2.63578
G1 X85.707 Y99.386 E2.65098
G1 X85.941 Y98.812 E2.66622
G1 X86.323 Y98.320 E2.68150
G1 X86.812 Y97.944 E2.69666
G1 X87.384 Y97.707 E2.71187
G1 X88.000 Y97.624 E2.72712
G1 X88.616 Y97.707 E2.74237
G1 X89.188 Y97.944 E2.75758
G1 X89.677 Y98.320 E2.77274
G1 X90.059 Y98.812 E2.78802
G1 X90.293 Y99.386 E2.80325
G1 X90.364 Y99.914 E2.81632
G1 X89.792 Y100.000 F7800.000
G1 X89.730 Y100.463 F540.000 E2.82780
G1 X89.553 Y100.896 E2.83927
G1 X89.266 Y101.268 E2.85082
G1 X88.896 Y101.553 E2.86228
G1 X88.463 Y101.732 E2.87380
G1 X88.001 Y101.792 E2.88523
G1 X87.537 Y101.732 E2.89671
G1 X87.104 Y101.553 E2.90822
G1 X86.734 Y101.268 E2.91968
G1 X86.447 Y100.896 E2.93123
G1 X86.270 Y100.463 E2.94270
G1 X86.208 Y100.000 E2.95417
G1 X86.270 Y99.537 E2.96565
G1 X86.447 Y99.104 E2.97713
G1 X86.734 Y98.733 E2.98864
G1 X87.104 Y98.449 E3.00009
G1 X87.536 Y98.270 E3.01157
G1 X88.000 Y98.208 E3.02307
G1 X88.464 Y98.270 E3.03456
G1 X88.896 Y98.449 E3.04604
G1 X89.266 Y98.733 E3.05749
G1 X89.553 Y99.104 E3.06900
G1 X89.730 Y99.537 E3.08048
G1 X89.780 Y99.914 E3.08983
G1 X89.377 Y100.215 F7800.000
G1 F1800.000 E2.08983
G1 Z0.400 F7800.000
G92 E0
G1 X98.198 Y90.348
G1 Z0.300
G1 F1800.000 E2.00000
G1 X97.652 Y89.802 F540.000 E2.01896
G1 X97.267 Y89.133 E2.03791
G1 X97.066 Y88.388 E2.05687
G1 X97.066 Y87.612 E2.07590
G1 X97.267 Y86.865 E2.09490
G1 X97.652 Y86.201 E2.11375
G1 X98.196 Y85.654 E2.13270
G1 X98.870 Y85.265 E2.15181
G1 X99.616 Y85.068 E2.17075
G1 X100.384 Y85.068 E2.18961
G1 X101.130 Y85.265 E2.20855
G1 X101.804 Y85.654 E2.22766
G1 X102.348 Y86.201 E2.24661
G1 X102.733 Y86.865 E2.26546
G1 X102.934 Y87.612 E2.28445
G1 X102.934 Y88.388 E2.30349
G1 X102.733 Y89.133 E2.32244
G1 X102.348 Y89.802 E2.34140
G1 X101.802 Y90.348 E2.36036
G1 X101.133 Y90.733 E2.37932
G1 X100.388 Y90.934 E2.39827
G1 X99.612 Y90.934 E2.41731
G1 X98.867 Y90.733 E2.43626
G1 X98.273 Y90.391 E2.45308
G1 X98.553 Y89.885 F7800.000
G1 X98.115 Y89.447 F540.000 E2.46829
G1 X97.806 Y88.909 E2.48352
G1 X97.644 Y88.311 E2.49874
G1 X97.644 Y87.689 E2.51401
G1 X97.806 Y87.090 E2.52926
G1 X98.115 Y86.556 E2.54440
G1 X98.552 Y86.116 E2.55962
G1 X99.093 Y85.805 E2.57494
G1 X99.691 Y85.646 E2.59014
G1 X100.309 Y85.646 E2.60531
G1 X100.907 Y85.805 E2.62051
G1 X101.448 Y86.116 E2.63583
G1 X101.885 Y86.556 E2.65105
G1 X102.194 Y87.090 E2.66620
G1 X102.356 Y87.689 E2.68144
G1 X102.356 Y88.311 E2.69671
G1 X102.194 Y88.909 E2.71193
G1 X101.885 Y89.447 E2.72716
G1 X101.447 Y89.885 E2.74237
G1 X100.909 Y90.194 E2.75759
G1 X100.311 Y90.356 E2.77281
G1 X99.689 Y90.356 E2.78809
G1 X99.091 Y90.194 E2.80330
G1 X98.629 Y89.928 E2.81640
G1 X98.908 Y89.422 F7800.000
G1 X98.578 Y89.092 F540.000 E2.82786
G1 X98.345 Y88.686 E2.83936
G1 X98.223 Y88.234 E2.85084
G1 X98.223 Y87.766 E2.86235
G1 X98.345 Y87.314 E2.87384
G1 X98.578 Y86.911 E2.88528
G1 X98.908 Y86.579 E2.89677
G1 X99.315 Y86.344 E2.90830
G1 X99.766 Y86.225 E2.91977
G1 X100.234 Y86.225 E2.93124
G1 X100.685 Y86.344 E2.94271
G1 X101.092 Y86.579 E2.95424
G1 X101.422 Y86.911 E2.96572
G1 X101.655 Y87.314 E2.97717
G1 X101.777 Y87.766 E2.98866
G1 X101.777 Y88.234 E3.00017
G1 X101.655 Y88.686 E3.01165
G1 X101.422 Y89.092 E3.02315
G1 X101.092 Y89.422 E3.03461
G1 X100.686 Y89.655 E3.04611
G1 X100.234 Y89.777 E3.05759
G1 X99.766 Y89.777 E3.06910
G1 X99.314 Y89.655 E3.08058
G1 X98.984 Y89.465 E3.08994
G1 X98.989 Y88.962 F7800.000
G1 F1800.000 E2.08994
G1 Z0.400 F7800.000
G92 E0
G1 X100.000 Y97.041
G1 Z0.300
G1 F1800.000 E2.00000
G1 X100.767 Y97.144 F540.000 E2.01901
G1 X101.480 Y97.439 E2.03794
G1 X102.089 Y97.907 E2.05681
G1 X102.564 Y98.520 E2.07586
G1 X102.857 Y99.236 E2.09486
G1 X102.959 Y100.000 E2.11378
G1 X102.857 Y100.764 E2.13270
G1 X102.565 Y101.478 E2.15164
G1 X102.091 Y102.094 E2.17073
G1 X101.480 Y102.563 E2.18965
G1 X100.764 Y102.860 E2.20868
G1 X100.000 Y102.958 E2.22759
G1 X99.236 Y102.860 E2.24650
G1 X98.520 Y102.563 E2.26553
G1 X97.909 Y102.094 E2.28445
G1 X97.435 Y101.478 E2.30354
G1 X97.143 Y100.764 E2.32248
G1 X97.041 Y100.000 E2.34139
G1 X97.143 Y99.236 E2.36032
G1 X97.436 Y98.520 E2.37931
G1 X97.911 Y97.907 E2.39837
G1 X98.520 Y97.439 E2.41723
G1 X99.233 Y97.144 E2.43617
G1 X99.914 Y97.052 E2.45304
G1 X100.000 Y97.624 F7800.000
G1 X100.616 Y97.707 F540.000 E2.46829
G1 X101.188 Y97.944 E2.48350
G1 X101.677 Y98.320 E2.49866
G1 X102.059 Y98.812 E2.51394
G1 X102.293 Y99.387 E2.52918
G1 X102.376 Y100.000 E2.54438
G1 X102.293 Y100.613 E2.55958
G1 X102.059 Y101.187 E2.57478
G1 X101.679 Y101.681 E2.59010
G1 X101.188 Y102.058 E2.60529
G1 X100.614 Y102.296 E2.62055
G1 X100.000 Y102.375 E2.63575
G1 X99.387 Y102.296 E2.65093
G1 X98.812 Y102.058 E2.66620
G1 X98.321 Y101.681 E2.68139
G1 X97.941 Y101.187 E2.69671
G1 X97.707 Y100.613 E2.71191
G1 X97.624 Y100.000 E2.72711
G1 X97.707 Y99.386 E2.74231
G1 X97.941 Y98.812 E2.75754
G1 X98.323 Y98.320 E2.77283
G1 X98.812 Y97.944 E2.78799
G1 X99.384 Y97.707 E2.80320
G1 X99.914 Y97.636 E2.81631
G1 X100.000 Y98.208 F7800.000
G1 X100.464 Y98.270 F540.000 E2.82781
G1 X100.896 Y98.449 E2.83929
G1 X101.266 Y98.733 E2.85074
G1 X101.553 Y99.104 E2.86225
G1 X101.730 Y99.537 E2.87373
G1 X101.792 Y100.000 E2.88521
G1 X101.730 Y100.463 E2.89668
G1 X101.553 Y100.896 E2.90815
G1 X101.266 Y101.268 E2.91970
G1 X100.896 Y101.553 E2.93116
G1 X100.463 Y101.732 E2.94266
G1 X100.000 Y101.792 E2.95413
G1 X99.537 Y101.732 E2.96560
G1 X99.104 Y101.553 E2.97710
G1 X98.734 Y101.268 E2.98856
G1 X98.447 Y100.896 E3.00011
G1 X98.270 Y100.463 E3.01158
G1 X98.208 Y100.000 E3.02305
G1 X98.270 Y99.537 E3.03453
G1 X98.447 Y99.104 E3.04601
G1 X98.734 Y98.733 E3.05752
G1 X99.104 Y98.449 E3.06897
G1 X99.536 Y98.270 E3.08046
G1 X99.914 Y98.220 E3.08982
G1 X100.216 Y98.623 F7800.000
G1 F1800.000 E2.08982
G1 Z0.400 F7800.000
G92 E0
G1 X100.384 Y109.068
G1 Z0.300
G1 F1800.000 E2.00000
G1 X101.130 Y109.265 F540.000 E2.01894
G1 X101.804 Y109.654 E2.03805
G1 X102.348 Y110.201 E2.05700
G1 X102.733 Y110.865 E2.07585
G1 X102.934 Y111.612 E2.09484
G1 X102.934 Y112.388 E2.11389
G1 X102.733 Y113.133 E2.13284
G1 X102.348 Y113.802 E2.15179
G1 X101.802 Y114.348 E2.17075
G1 X101.133 Y114.733 E2.18970
G1 X100.388 Y114.934 E2.20866
G1 X99.612 Y114.934 E2.22771
G1 X98.867 Y114.733 E2.24665
G1 X98.198 Y114.348 E2.26561
G1 X97.652 Y113.802 E2.28457
G1 X97.267 Y113.133 E2.30352
G1 X97.066 Y112.388 E2.32247
G1 X97.066 Y111.612 E2.34151
G1 X97.267 Y110.865 E2.36051
G1 X97.652 Y110.201 E2.37936
G1 X98.196 Y109.654 E2.39831
G1 X98.870 Y109.265 E2.41742
G1 X99.616 Y109.068 E2.43636
G1 X100.297 Y109.068 E2.45308
G1 X100.309 Y109.646 F7800.000
G1 X100.907 Y109.805 F540.000 E2.46829
G1 X101.448 Y110.116 E2.48361
G1 X101.885 Y110.556 E2.49883
G1 X102.194 Y111.090 E2.51397
G1 X102.356 Y111.689 E2.52922
G1 X102.356 Y112.311 E2.54449
G1 X102.194 Y112.909 E2.55971
G1 X101.885 Y113.447 E2.57493
G1 X101.447 Y113.885 E2.59015
G1 X100.909 Y114.194 E2.60537
G1 X100.311 Y114.356 E2.62059
G1 X99.689 Y114.356 E2.63587
G1 X99.091 Y114.194 E2.65108
G1 X98.553 Y113.885 E2.66631
G1 X98.115 Y113.447 E2.68152
G1 X97.806 Y112.909 E2.69674
G1 X97.644 Y112.311 E2.71196
G1 X97.644 Y111.689 E2.72723
G1 X97.806 Y111.090 E2.74248
G1 X98.115 Y110.556 E2.75762
G1 X98.552 Y110.116 E2.77284
G1 X99.093 Y109.805 E2.78816
G1 X99.691 Y109.646 E2.80337
G1 X100.222 Y109.646 E2.81640
G1 X100.234 Y110.225 F7800.000
G1 X100.685 Y110.344 F540.000 E2.82787
G1 X101.092 Y110.579 E2.83940
G1 X101.422 Y110.911 E2.85088
G1 X101.655 Y111.314 E2.86233
G1 X101.777 Y111.766 E2.87382
G1 X101.777 Y112.234 E2.88533
G1 X101.655 Y112.686 E2.89681
G1 X101.422 Y113.092 E2.90831
G1 X101.092 Y113.422 E2.91977
G1 X100.686 Y113.655 E2.93127
G1 X100.234 Y113.777 E2.94275
G1 X99.766 Y113.777 E2.95426
G1 X99.314 Y113.655 E2.96574
G1 X98.908 Y113.422 E2.97724
G1 X98.578 Y113.092 E2.98870
G1 X98.345 Y112.686 E3.00020
G1 X98.223 Y112.234 E3.01168
G1 X98.223 Y111.766 E3.02318
G1 X98.345 Y111.314 E3.03468
G1 X98.578 Y110.911 E3.04612
G1 X98.908 Y110.579 E3.05760
G1 X99.315 Y110.344 E3.06914
G1 X99.766 Y110.225 E3.08060
G1 X100.147 Y110.225 E3.08995
G1 X100.394 Y110.663 F7800.000
G1 F1800.000 E2.08995
G1 Z0.400 F7800.000
G92 E0
G1 X123.342 Y119.554
G1 Z0.300
G1 F1800.000 E2.00000
G1 X76.658 Y119.554 F540.000 E3.14626
G1 X76.215 Y119.045 E3.16283
G1 X75.429 Y118.024 E3.19447
G1 X74.707 Y116.958 E3.22608
G1 X74.052 Y115.849 E3.25771
G1 X73.466 Y114.702 E3.28934
G1 X72.952 Y113.521 E3.32097
G1 X72.510 Y112.310 E3.35261
G1 X72.143 Y111.074 E3.38427
G1 X71.851 Y109.818 E3.41593
G1 X71.638 Y108.550 E3.44750
G1 X71.503 Y107.269 E3.47914
G1 X71.446 Y105.968 E3.51109
G1 X71.446 Y88.446 E3.94133
G1 X79.193 Y88.446 E4.13154
G1 X79.790 Y88.263 E4.14689
G1 X80.029 Y88.150 E4.15336
G1 X80.459 Y87.863 E4.16606
G1 X80.828 Y87.503 E4.17872
G1 X81.119 Y87.088 E4.19117
G1 X81.335 Y86.616 E4.20391
G1 X81.446 Y86.230 E4.21377
G1 X81.446 Y81.209 E4.33707
G1 X81.596 Y80.915 E4.34517
G1 X81.742 Y80.742 E4.35073
G1 X81.917 Y80.594 E4.35636
G1 X82.210 Y80.446 E4.36441
G1 X117.790 Y80.446 E5.23805
G1 X117.989 Y80.536 E5.24339
G1 X118.171 Y80.660 E5.24881
G1 X118.340 Y80.829 E5.25468
G1 X118.466 Y81.015 E5.26018
G1 X118.554 Y81.209 E5.26541
G1 X118.554 Y86.230 E5.38871
G1 X118.665 Y86.616 E5.39857
G1 X118.881 Y87.088 E5.41131
G1 X119.172 Y87.503 E5.42376
G1 X119.541 Y87.863 E5.43642
G1 X119.971 Y88.150 E5.44912
G1 X120.210 Y88.263 E5.45559
G1 X120.807 Y88.446 E5.47094
G1 X128.554 Y88.446 E5.66115
G1 X128.554 Y105.968 E6.09138
G1 X128.497 Y107.269 E6.12334
G1 X128.362 Y108.550 E6.15498
G1 X128.149 Y109.818 E6.18655
G1 X127.857 Y111.074 E6.21821
G1 X127.490 Y112.310 E6.24986
G1 X127.048 Y113.521 E6.28151
G1 X126.534 Y114.702 E6.31314
G1 X125.948 Y115.849 E6.34477
G1 X125.293 Y116.958 E6.37640
G1 X124.571 Y118.024 E6.40801
G1 X123.785 Y119.045 E6.43965
G1 X123.399 Y119.488 E6.45409
G1 X123.605 Y120.132 F7800.000
G1 X76.395 Y120.132 F540.000 E7.61328
G1 X75.767 Y119.412 E7.63674
