; generated by Slic3r 0.9.10b on 2014-01-04 at 22:01:45

; layer_height = 0.3
; perimeters = 3
; top_solid_layers = 3
; bottom_solid_layers = 3
; fill_density = 1
; perimeter_speed = 30
; infill_speed = 60
; travel_speed = 130
; nozzle_diameter = 0.5
; filament_diameter = 3
; extrusion_multiplier = 1
; perimeters extrusion width = 0.70mm
; infill extrusion width = 0.70mm
; solid infill extrusion width = 0.70mm
; top infill extrusion width = 0.70mm
; first layer extrusion width = 0.60mm

G21 ; set units to millimeters
M107
M190 S110 ; wait for bed temperature to be reached
M104 S225 ; set temperature
G28 ; home all axes
G1 Z5 F5000 ; lift nozzle
M109 S225 ; wait for temperature to be reached
G90 ; use absolute coordinates
G92 E0
M82 ; use absolute distances for extrusion
G1 F1800.000 E-1.00000
G1 Z0.400 F7800.000
G92 E0
G1 X72.400 Y76.620
G1 Z0.300
G1 F1800.000 E2.00000
G1 X74.530 Y74.630 F540.000 E2.07157
G1 X78.930 Y70.630 E2.21758
G1 X81.080 Y68.870 E2.28581
G1 X84.830 Y65.890 E2.40342
G1 X86.700 Y64.440 E2.46152
G1 X90.600 Y61.490 E2.58159
G1 X94.410 Y58.700 E2.69754
G1 X98.350 Y55.920 E2.81594
G1 X102.420 Y53.120 E2.93724
G1 X105.840 Y50.870 E3.03776
G1 X109.420 Y48.630 E3.14145
G1 X113.180 Y46.390 E3.24892
G1 X116.730 Y44.370 E3.34921
G1 X130.890 Y36.460 E3.74746
G1 X132.840 Y35.450 E3.80138
G1 X134.880 Y34.440 E3.85727
G1 X136.800 Y33.550 E3.90924
G1 X138.630 Y32.740 E3.95838
G1 X140.640 Y31.910 E4.01177
G1 X150.630 Y28.100 E4.27430
G1 X153.630 Y27.020 E4.35259
G1 X155.330 Y26.470 E4.39646
G1 X156.870 Y26.000 E4.43600
G1 X158.450 Y25.540 E4.47640
G1 X159.910 Y25.150 E4.51351
G1 X161.640 Y24.730 E4.55722
G1 X163.110 Y24.400 E4.59421
G1 X164.670 Y24.080 E4.63332
G1 X164.670 Y24.100 E4.63381
G1 X165.090 Y24.000 E4.64441
G1 X166.260 Y23.940 E4.67317
G1 X166.820 Y23.960 E4.68693
G1 X167.610 Y24.030 E4.70641
G1 X168.380 Y24.200 E4.72577
G1 X168.910 Y24.350 E4.73929
G1 X169.690 Y24.630 E4.75964
G1 X170.430 Y25.000 E4.77996
G1 X170.910 Y25.280 E4.79360
G1 X171.620 Y25.750 E4.81451
G1 X172.250 Y26.310 E4.83520
G1 X172.650 Y26.710 E4.84909
G1 X173.210 Y27.340 E4.86979
G1 X173.680 Y28.050 E4.89070
G1 X173.960 Y28.530 E4.90434
G1 X174.340 Y29.280 E4.92499
G1 X174.620 Y30.080 E4.94580
G1 X174.770 Y30.620 E4.95956
G1 X174.940 Y31.430 E4.97988
G1 X175.010 Y32.260 E5.00033
G1 X175.020 Y32.820 E5.01409
G1 X174.980 Y33.660 E5.03474
G1 X174.840 Y34.480 E5.05516
G1 X174.710 Y35.020 E5.06880
G1 X174.460 Y35.810 E5.08914
G1 X174.120 Y36.560 E5.10936
G1 X173.860 Y37.050 E5.12298
G1 X173.410 Y37.780 E5.14404
G1 X172.870 Y38.440 E5.16498
G1 X172.430 Y38.930 E5.18115
G1 X106.470 Y107.930 E7.52496
G1 X71.090 Y143.320 E8.75369
G1 X63.450 Y150.950 E9.01881
G1 X63.110 Y151.270 E9.03028
G1 X36.420 Y174.450 E9.89827
G1 X35.360 Y175.200 E9.93016
G1 X34.170 Y175.730 E9.96214
G1 X32.910 Y176.010 E9.99384
G1 X31.610 Y176.040 E10.02577
G1 X30.330 Y175.810 E10.05770
G1 X29.120 Y175.340 E10.08957
G1 X28.020 Y174.630 E10.12172
G1 X27.090 Y173.730 E10.15350
G1 X26.350 Y172.660 E10.18544
G1 X25.840 Y171.470 E10.21723
G1 X25.570 Y170.190 E10.24935
G1 X25.300 Y167.700 E10.31085
G1 X25.120 Y165.400 E10.36749
G1 X25.000 Y162.640 E10.43533
G1 X24.980 Y160.110 E10.49745
G1 X25.050 Y157.570 E10.55984
G1 X25.190 Y155.270 E10.61642
G1 X25.440 Y152.540 E10.68373
G1 X25.730 Y150.250 E10.74041
G1 X26.170 Y147.540 E10.80782
G1 X26.610 Y145.280 E10.86436
G1 X27.240 Y142.580 E10.93243
G1 X27.840 Y140.350 E10.98914
G1 X28.200 Y139.340 E11.01546
G1 X30.240 Y134.850 E11.13656
G1 X33.680 Y127.460 E11.33671
G1 X36.570 Y121.450 E11.50045
G1 X37.880 Y118.840 E11.57216
G1 X39.420 Y115.960 E11.65235
G1 X40.960 Y113.270 E11.72846
G1 X42.480 Y110.780 E11.80009
G1 X44.270 Y108.040 E11.88045
G1 X46.030 Y105.480 E11.95673
G1 X47.750 Y103.130 E12.02824
G1 X49.760 Y100.530 E12.10893
G1 X51.720 Y98.150 E12.18463
G1 X53.630 Y95.950 E12.25617
G1 X55.710 Y93.630 E12.33268
G1 X59.710 Y89.320 E12.47706
G1 X61.820 Y87.100 E12.55226
G1 X63.860 Y85.010 E12.62397
G1 X65.930 Y82.910 E12.69637
G1 X68.020 Y80.850 E12.76843
G1 X70.180 Y78.740 E12.84257
G1 X72.338 Y76.681 E12.91581
G1 F1800.000 E11.91581
G1 Z0.400 F7800.000
G92 E0
G1 X93.627 Y102.879
G1 Z0.300
G1 F1800.000 E2.00000
G1 X94.029 Y102.619 F540.000 E2.01176
G1 X94.247 Y102.521 E2.01761
G1 X94.477 Y102.447 E2.02356
G1 X94.949 Y102.372 E2.03529
G1 X95.427 Y102.397 E2.04703
G1 X95.663 Y102.447 E2.05295
G1 X96.108 Y102.618 E2.06468
G1 X96.317 Y102.739 E2.07058
G1 X96.509 Y102.879 E2.07642
G1 X96.688 Y103.039 E2.08234
G1 X96.847 Y103.218 E2.08820
G1 X96.989 Y103.411 E2.09409
G1 X97.110 Y103.620 E2.10001
G1 X97.281 Y104.065 E2.11173
G1 X97.355 Y104.538 E2.12348
G1 X97.355 Y104.779 E2.12939
G1 X97.281 Y105.251 E2.14114
G1 X97.110 Y105.697 E2.15287
G1 X96.988 Y105.907 E2.15883
G1 X96.847 Y106.099 E2.16467
G1 X96.688 Y106.277 E2.17053
G1 X96.509 Y106.438 E2.17645
G1 X96.317 Y106.578 E2.18229
G1 X96.108 Y106.699 E2.18820
G1 X95.662 Y106.870 E2.19993
G1 X95.188 Y106.946 E2.21172
G1 X94.947 Y106.946 E2.21765
G1 X94.477 Y106.870 E2.22932
G1 X94.247 Y106.796 E2.23527
G1 X94.031 Y106.699 E2.24108
G1 X93.822 Y106.580 E2.24699
G1 X93.626 Y106.437 E2.25294
G1 X93.289 Y106.100 E2.26464
G1 X93.147 Y105.906 E2.27055
G1 X92.931 Y105.479 E2.28229
G1 X92.808 Y105.017 E2.29404
G1 X92.782 Y104.780 E2.29989
G1 X92.782 Y104.540 E2.30580
G1 X92.858 Y104.066 E2.31756
G1 X92.931 Y103.838 E2.32346
G1 X93.030 Y103.618 E2.32937
G1 X93.288 Y103.218 E2.34108
G1 X93.563 Y102.937 E2.35072
G1 X94.068 Y103.066 F7800.000
G1 F1800.000 E1.35072
G1 Z0.400 F7800.000
G92 E0
G1 X89.617 Y99.206
G1 Z0.300
G1 F1800.000 E2.00000
G1 X89.245 Y99.507 F540.000 E2.01175
G1 X89.037 Y99.628 E2.01765
G1 X88.591 Y99.799 E2.02938
G1 X88.117 Y99.875 E2.04117
G1 X87.876 Y99.875 E2.04711
G1 X87.638 Y99.847 E2.05297
G1 X87.406 Y99.799 E2.05879
G1 X87.176 Y99.725 E2.06473
G1 X86.751 Y99.509 E2.07644
G1 X86.555 Y99.366 E2.08240
G1 X86.379 Y99.206 E2.08822
G1 X86.218 Y99.029 E2.09410
G1 X86.076 Y98.835 E2.10001
G1 X85.860 Y98.408 E2.11176
G1 X85.737 Y97.946 E2.12350
G1 X85.711 Y97.492 E2.13467
G1 X85.737 Y97.229 E2.14116
G1 X85.860 Y96.766 E2.15291
G1 X86.078 Y96.341 E2.16464
G1 X86.217 Y96.147 E2.17053
G1 X86.379 Y95.968 E2.17644
G1 X86.556 Y95.808 E2.18230
G1 X86.751 Y95.668 E2.18818
G1 X86.958 Y95.548 E2.19408
G1 X87.176 Y95.450 E2.19993
G1 X87.406 Y95.376 E2.20588
G1 X87.878 Y95.301 E2.21760
G1 X88.356 Y95.325 E2.22935
G1 X88.591 Y95.376 E2.23527
G1 X88.818 Y95.450 E2.24111
G1 X89.037 Y95.547 E2.24701
G1 X89.245 Y95.667 E2.25291
G1 X89.617 Y95.968 E2.26466
G1 X89.918 Y96.340 E2.27640
G1 X90.039 Y96.549 E2.28232
G1 X90.210 Y96.994 E2.29404
G1 X90.284 Y97.467 E2.30579
G1 X90.284 Y97.708 E2.31170
G1 X90.259 Y97.947 E2.31760
G1 X90.210 Y98.180 E2.32346
G1 X90.134 Y98.408 E2.32936
G1 X90.039 Y98.626 E2.33520
G1 X89.917 Y98.836 E2.34116
G1 X89.675 Y99.142 E2.35072
G1 X89.160 Y99.066 F7800.000
G1 F1800.000 E1.35072
G1 Z0.400 F7800.000
G92 E0
G1 X55.464 Y130.122
G1 Z0.300
G1 F1800.000 E2.00000
G1 X55.765 Y130.493 F540.000 E2.01174
G1 X55.886 Y130.702 E2.01766
G1 X55.981 Y130.920 E2.02349
G1 X56.057 Y131.147 E2.02939
G1 X56.105 Y131.382 E2.03526
G1 X56.131 Y131.620 E2.04116
G1 X56.131 Y131.861 E2.04706
G1 X56.057 Y132.334 E2.05882
G1 X55.885 Y132.780 E2.07054
G1 X55.763 Y132.989 E2.07650
G1 X55.464 Y133.360 E2.08819
G1 X55.092 Y133.661 E2.09994
G1 X54.884 Y133.781 E2.10584
G1 X54.438 Y133.952 E2.11757
G1 X53.964 Y134.028 E2.12937
G1 X53.722 Y134.028 E2.13530
G1 X53.485 Y134.001 E2.14117
G1 X53.253 Y133.952 E2.14698
G1 X53.023 Y133.878 E2.15293
G1 X52.597 Y133.663 E2.16463
G1 X52.402 Y133.519 E2.17059
G1 X52.226 Y133.360 E2.17641
G1 X52.065 Y133.182 E2.18229
G1 X51.923 Y132.988 E2.18820
G1 X51.706 Y132.562 E2.19995
G1 X51.583 Y132.099 E2.21169
G1 X51.557 Y131.645 E2.22286
G1 X51.583 Y131.382 E2.22935
G1 X51.706 Y130.920 E2.24110
G1 X51.924 Y130.495 E2.25283
G1 X52.064 Y130.300 E2.25872
G1 X52.226 Y130.122 E2.26463
G1 X52.403 Y129.961 E2.27050
G1 X52.597 Y129.822 E2.27637
G1 X52.805 Y129.701 E2.28227
G1 X53.023 Y129.603 E2.28812
G1 X53.253 Y129.529 E2.29407
G1 X53.725 Y129.454 E2.30580
G1 X54.203 Y129.479 E2.31754
G1 X54.438 Y129.529 E2.32346
G1 X54.664 Y129.603 E2.32931
G1 X54.884 Y129.700 E2.33520
G1 X55.092 Y129.821 E2.34110
G1 X55.399 Y130.064 E2.35072
G1 X55.324 Y130.579 F7800.000
G1 F1800.000 E1.35072
G1 Z0.400 F7800.000
G92 E0
G1 X59.668 Y136.893
G1 Z0.300
G1 F1800.000 E2.00000
G1 X59.876 Y136.772 F540.000 E2.00589
G1 X60.094 Y136.675 E2.01175
G1 X60.324 Y136.600 E2.01770
G1 X60.796 Y136.526 E2.02942
G1 X61.274 Y136.550 E2.04117
G1 X61.509 Y136.600 E2.04709
G1 X61.735 Y136.675 E2.05293
G1 X61.955 Y136.771 E2.05883
G1 X62.163 Y136.892 E2.06473
G1 X62.535 Y137.193 E2.07648
G1 X62.836 Y137.564 E2.08822
G1 X62.957 Y137.773 E2.09414
G1 X63.052 Y137.991 E2.09997
G1 X63.128 Y138.219 E2.10587
G1 X63.176 Y138.453 E2.11174
G1 X63.202 Y138.691 E2.11764
G1 X63.202 Y138.932 E2.12354
G1 X63.128 Y139.405 E2.13529
G1 X62.956 Y139.851 E2.14702
G1 X62.834 Y140.061 E2.15298
G1 X62.535 Y140.431 E2.16467
G1 X62.163 Y140.732 E2.17642
G1 X61.955 Y140.852 E2.18232
G1 X61.735 Y140.949 E2.18821
G1 X61.509 Y141.023 E2.19406
G1 X61.275 Y141.073 E2.19996
G1 X61.035 Y141.099 E2.20587
G1 X60.793 Y141.099 E2.21181
G1 X60.324 Y141.023 E2.22347
G1 X60.094 Y140.949 E2.22942
G1 X59.668 Y140.734 E2.24113
G1 X59.473 Y140.590 E2.24708
G1 X59.297 Y140.431 E2.25291
G1 X59.136 Y140.253 E2.25879
G1 X58.994 Y140.059 E2.26470
G1 X58.777 Y139.633 E2.27645
G1 X58.654 Y139.170 E2.28819
G1 X58.629 Y138.934 E2.29404
G1 X58.629 Y138.693 E2.29995
G1 X58.654 Y138.453 E2.30587
G1 X58.777 Y137.991 E2.31762
G1 X58.995 Y137.566 E2.32935
G1 X59.135 Y137.371 E2.33523
G1 X59.297 Y137.193 E2.34115
G1 X59.598 Y136.943 E2.35074
G1 X59.882 Y137.001 F7800.000
G1 X59.106 Y135.881
G1 X58.746 Y136.130 F540.000 E2.36149
G1 X58.478 Y136.373 E2.37036
G1 X58.234 Y136.642 E2.37929
G1 X58.022 Y136.937 E2.38821
G1 X57.846 Y137.243 E2.39686
G1 X57.695 Y137.575 E2.40582
G1 X57.585 Y137.922 E2.41476
G1 X57.510 Y138.270 E2.42349
G1 X57.471 Y138.631 E2.43240
G1 X57.471 Y138.997 E2.44139
G1 X57.511 Y139.355 E2.45024
G1 X57.585 Y139.701 E2.45893
G1 X57.695 Y140.048 E2.46788
G1 X57.843 Y140.375 E2.47668
G1 X58.020 Y140.688 E2.48551
G1 X58.238 Y140.986 E2.49458
G1 X58.478 Y141.250 E2.50335
G1 X58.740 Y141.488 E2.51202
G1 X59.039 Y141.707 E2.52113
G1 X59.355 Y141.886 E2.53005
G1 X59.678 Y142.030 E2.53873
G1 X60.027 Y142.144 E2.54774
G1 X60.760 Y142.296 E2.56613
G1 X58.621 Y144.435 E2.64039
G1 X58.017 Y143.912 E2.66000
G1 X57.003 Y142.888 E2.69540
G1 X56.408 Y142.353 E2.71504
G1 X55.781 Y141.853 E2.73474
G1 X55.128 Y141.393 E2.75435
G1 X54.449 Y140.970 E2.77400
G1 X53.743 Y140.589 E2.79370
G1 X53.016 Y140.251 E2.81338
G1 X52.273 Y139.957 E2.83300
G1 X51.513 Y139.707 E2.85265
G1 X50.737 Y139.502 E2.87234
G1 X49.952 Y139.344 E2.89202
G1 X49.153 Y139.232 E2.91183
G1 X48.431 Y139.181 E2.92959
G1 X47.703 Y139.184 E2.94747
G1 X46.972 Y139.243 E2.96547
G1 X46.250 Y139.360 E2.98342
G1 X45.543 Y139.529 E3.00129
G1 X44.847 Y139.752 E3.01924
G1 X44.169 Y140.028 E3.03720
G1 X43.517 Y140.357 E3.05514
G1 X42.892 Y140.733 E3.07304
G1 X42.296 Y141.155 E3.09096
G1 X41.735 Y141.623 E3.10891
G1 X41.223 Y142.119 E3.12643
G1 X40.453 Y142.955 E3.15431
G1 X39.727 Y143.806 E3.18179
G1 X39.030 Y144.681 E3.20926
G1 X38.366 Y145.582 E3.23675
G1 X37.735 Y146.506 E3.26422
G1 X37.139 Y147.452 E3.29167
G1 X36.575 Y148.420 E3.31918
G1 X36.050 Y149.408 E3.34666
G1 X35.558 Y150.414 E3.37415
G1 X35.104 Y151.437 E3.40163
G1 X34.688 Y152.477 E3.42912
G1 X34.312 Y153.521 E3.45638
G1 X33.615 Y155.683 E3.51215
G1 X33.210 Y155.602 E3.52229
G1 X33.402 Y153.530 E3.57338
G1 X33.686 Y151.289 E3.62885
G1 X34.046 Y149.061 E3.68427
G1 X34.482 Y146.845 E3.73973
G1 X34.991 Y144.643 E3.79521
G1 X35.551 Y142.553 E3.84834
G1 X37.517 Y138.231 E3.96493
G1 X39.563 Y133.817 E4.08438
G1 X40.944 Y130.882 E4.16403
G1 X43.741 Y125.040 E4.32307
G1 X45.034 Y122.462 E4.39388
G1 X46.392 Y119.933 E4.46438
G1 X47.822 Y117.440 E4.53494
G1 X49.319 Y114.986 E4.60551
G1 X50.884 Y112.576 E4.67606
G1 X52.514 Y110.212 E4.74658
G1 X54.210 Y107.891 E4.81716
G1 X55.970 Y105.621 E4.88770
G1 X57.791 Y103.399 E4.95823
G1 X59.678 Y101.224 E5.02893
G1 X61.617 Y99.071 E5.10009
G1 X63.581 Y96.930 E5.17141
G1 X65.567 Y94.809 E5.24276
G1 X67.570 Y92.707 E5.31405
G1 X69.594 Y90.624 E5.38537
G1 X71.637 Y88.561 E5.45667
G1 X73.701 Y86.517 E5.52798
G1 X75.784 Y84.493 E5.59930
G1 X77.887 Y82.488 E5.67064
G1 X80.007 Y80.504 E5.74194
G1 X82.148 Y78.540 E5.81326
G1 X84.285 Y76.615 E5.88390
G1 X87.915 Y73.687 E5.99841
G1 X89.760 Y72.233 E6.05609
G1 X93.483 Y69.372 E6.17137
G1 X97.249 Y66.568 E6.28665
G1 X101.061 Y63.826 E6.40197
G1 X104.913 Y61.141 E6.51726
G1 X108.544 Y58.700 E6.62469
G1 X110.243 Y57.596 E6.67443
G1 X113.679 Y55.443 E6.77400
G1 X115.414 Y54.395 E6.82377
G1 X118.920 Y52.354 E6.92338
G1 X122.466 Y50.391 E7.02290
G1 X126.075 Y48.495 E7.12300
G1 X127.932 Y47.561 E7.17404
G1 X129.670 Y46.447 E7.22473
G1 X131.349 Y45.426 E7.27296
G1 X133.049 Y44.441 E7.32122
G1 X134.771 Y43.495 E7.36946
G1 X136.515 Y42.586 E7.41775
G1 X138.279 Y41.718 E7.46602
G1 X140.060 Y40.889 E7.51427
G1 X141.860 Y40.098 E7.56254
G1 X143.677 Y39.350 E7.61079
G1 X145.510 Y38.642 E7.65904
G1 X147.358 Y37.974 E7.70728
G1 X149.294 Y37.323 E7.75744
G1 X150.726 Y36.706 E7.79571
G1 X152.098 Y36.142 E7.83214
G1 X153.483 Y35.605 E7.86862
G1 X154.876 Y35.092 E7.90507
G1 X156.279 Y34.606 E7.94153
G1 X157.690 Y34.146 E7.97797
G1 X159.110 Y33.710 E8.01444
G1 X160.536 Y33.303 E8.05085
G1 X161.972 Y32.921 E8.08733
G1 X163.414 Y32.565 E8.12382
G1 X164.862 Y32.234 E8.16027
G1 X166.163 Y31.965 E8.19290
G1 X166.365 Y31.970 E8.19787
G1 X166.549 Y32.023 E8.20255
G1 X166.711 Y32.119 E8.20718
G1 X166.844 Y32.254 E8.21183
G1 X166.939 Y32.416 E8.21644
G1 X166.989 Y32.596 E8.22102
G1 X166.992 Y32.787 E8.22572
G1 X166.949 Y32.969 E8.23031
G1 X166.860 Y33.134 E8.23492
G1 X166.731 Y33.276 E8.23964
G1 X166.574 Y33.377 E8.24421
G1 X166.198 Y33.501 E8.25395
G1 X163.828 Y34.377 E8.31599
G1 X161.488 Y35.287 E8.37763
G1 X159.162 Y36.233 E8.43927
G1 X156.852 Y37.218 E8.50096
G1 X154.559 Y38.243 E8.56262
G1 X152.283 Y39.303 E8.62425
G1 X150.024 Y40.402 E8.68594
G1 X147.784 Y41.537 E8.74760
G1 X145.564 Y42.710 E8.80926
G1 X143.364 Y43.919 E8.87090
G1 X141.182 Y45.164 E8.93257
G1 X139.022 Y46.445 E8.99424
G1 X137.318 Y47.493 E9.04335
G1 X135.631 Y48.565 E9.09243
G1 X133.961 Y49.663 E9.14151
G1 X132.305 Y50.787 E9.19066
G1 X130.669 Y51.937 E9.23976
G1 X129.051 Y53.110 E9.28882
G1 X127.449 Y54.308 E9.33794
G1 X125.866 Y55.530 E9.38705
G1 X124.303 Y56.776 E9.43613
G1 X122.757 Y58.047 E9.48527
G1 X121.233 Y59.340 E9.53434
G1 X119.724 Y60.660 E9.58356
G1 X118.221 Y62.031 E9.63352
G1 X116.752 Y63.445 E9.68360
G1 X115.322 Y64.897 E9.73363
G1 X113.930 Y66.385 E9.78366
G1 X112.579 Y67.912 E9.83372
G1 X111.267 Y69.474 E9.88381
G1 X110.001 Y71.070 E9.93383
G1 X108.774 Y72.697 E9.98387
G1 X107.592 Y74.361 E10.03398
G1 X106.455 Y76.051 E10.08400
G1 X105.362 Y77.773 E10.13407
G1 X104.319 Y79.521 E10.18406
G1 X102.993 Y81.896 E10.25085
G1 X102.360 Y83.102 E10.28428
G1 X101.156 Y85.538 E10.35102
G1 X100.584 Y86.773 E10.38444
G1 X99.503 Y89.267 E10.45118
G1 X98.508 Y91.798 E10.51794
G1 X97.555 Y94.469 E10.58757
G1 X97.445 Y95.171 E10.60501
G1 X97.290 Y95.945 E10.62440
G1 X97.204 Y96.830 E10.64624
G1 X97.204 Y97.717 E10.66802
G1 X97.290 Y98.601 E10.68982
G1 X97.463 Y99.475 E10.71170
G1 X97.721 Y100.325 E10.73351
G1 X98.061 Y101.147 E10.75536
G1 X98.480 Y101.930 E10.77716
G1 X98.973 Y102.668 E10.79895
G1 X99.610 Y103.446 E10.82365
G1 X98.554 Y104.502 E10.86033
G1 X98.400 Y103.763 E10.87887
G1 X98.286 Y103.422 E10.88770
G1 X98.144 Y103.097 E10.89642
G1 X97.959 Y102.778 E10.90547
G1 X97.748 Y102.489 E10.91426
G1 X97.508 Y102.220 E10.92310
G1 X97.237 Y101.978 E10.93203
G1 X96.950 Y101.768 E10.94077
G1 X96.633 Y101.585 E10.94975
G1 X96.304 Y101.440 E10.95858
G1 X95.965 Y101.328 E10.96733
G1 X95.607 Y101.252 E10.97634
G1 X95.248 Y101.215 E10.98520
G1 X94.887 Y101.215 E10.99406
G1 X94.530 Y101.254 E11.00288
